X: 1
T: Classical Jazz Transition
M: 4/4
L: 1/4
Q: 1/4=120
K: C
V:1
%%MIDI gchord b2b2
%%MIDI program 1
%%MIDI chordprog 41
%%MIDI bassprog 45
| "C" E2 G2 | "F" F2 A2 | "G" G2 B2 | "C" c4 | % measure 1-4
%%MIDI program 1
%%MIDI chordprog 41
%%MIDI bassprog 45
| "Dm" D2 F2 | "G" G2 A2 | "C" e2 c2 | "C" c4 | % measure 5-8
%%MIDI program 1
%%MIDI chordprog 17
%%MIDI bassprog 45
| "Am7" E2 G2 | "D7" F2 A2 | "G7" B2 d2 | "C7" e4 | % measure 9-12
%%MIDI program 1
%%MIDI chordprog 41
%%MIDI bassprog 45
| "C7" E2 G2 | "G9" A2 B2 | "Dm7" D2 A2 | "C9" E4 | % measure 13-16